images/zilliqa.svg

<svg height="250" viewBox="0 0 250 250" width="250" xmlns="http://www.w3.org/2000/svg" xmlns:xlink="http://www.w3.org/1999/xlink"><symbol id="a" overflow="visible"><path d="m2.203125 0v-5.359375l13.703125-18.296875h-12.59375v-5.46875h20.9375v5.40625l-13.625 18.203125h14.953125v5.515625zm0 0"/></symbol><symbol id="b" overflow="visible"><path d="m3.84375-34.375v-5.5625h7.5625v5.5625zm0 34.375v-29.125h7.5625v29.125zm0 0"/></symbol><symbol id="c" overflow="visible"><path d="m3.84375 0v-39.9375h7.5625v39.9375zm0 0"/></symbol><symbol id="d" overflow="visible"><path d="m2.265625-14.53125c0-4.8125.976563-8.539062 2.9375-11.1875 1.96875-2.644531 4.738281-3.96875 8.3125-3.96875 4.226563 0 7.160156 1.75 8.796875 5.25 0-.820312.046875-1.738281.140625-2.75.101563-1.019531.191406-1.664062.265625-1.9375h7.265625c-.105469 1.9375-.15625 4.171875-.15625 6.703125v33.859375h-7.515625v-12.109375l.140625-4.171875h-.0625c-1.667969 3.585938-4.835937 5.375-9.5 5.375-3.386719 0-6.007813-1.320312-7.859375-3.96875-1.84375-2.644531-2.765625-6.34375-2.765625-11.09375zm20.109375-.171875c0-3.101563-.523438-5.507813-1.5625-7.21875-1.042969-1.71875-2.578125-2.578125-4.609375-2.578125-4.042969 0-6.0625 3.324219-6.0625 9.96875 0 6.605469 2.003906 9.90625 6.015625 9.90625 1.96875 0 3.492188-.875 4.578125-2.625 1.09375-1.75 1.640625-4.234375 1.640625-7.453125zm0 0"/></symbol><symbol id="e" overflow="visible"><path d="m10.578125.53125c-2.8125 0-5.011719-.765625-6.59375-2.296875-1.585937-1.53125-2.375-3.6875-2.375-6.46875 0-3.019531.984375-5.316406 2.953125-6.890625 1.96875-1.582031 4.816406-2.390625 8.546875-2.421875l6.265625-.109375v-1.484375c0-1.894531-.335938-3.304687-1-4.234375-.65625-.925781-1.742188-1.390625-3.25-1.390625-1.398438 0-2.421875.320313-3.078125.953125-.65625.636719-1.0625 1.695312-1.21875 3.171875l-7.890625-.375c.476562-2.84375 1.769531-4.992187 3.875-6.453125 2.113281-1.457031 4.992188-2.1875 8.640625-2.1875 3.675781 0 6.507813.90625 8.5 2.71875 1.988281 1.8125 2.984375 4.386719 2.984375 7.71875v10.609375c0 1.636719.179688 2.761719.546875 3.375.375.617187.992187.921875 1.859375.921875.570312 0 1.128906-.050781 1.671875-.15625v4.09375c-.460937.105469-.867187.203125-1.21875.296875-.355469.08203125-.714844.1484375-1.078125.203125-.355469.0625-.734375.109375-1.140625.140625-.40625.039063-.882813.0625-1.421875.0625-1.898438 0-3.296875-.460937-4.203125-1.390625-.90625-.9375-1.449219-2.3125-1.625-4.125h-.171875c-2.117188 3.8125-5.308594 5.71875-9.578125 5.71875zm8.796875-14.015625-3.875.046875c-1.761719.074219-3.011719.273438-3.75.59375-.730469.3125-1.289062.792969-1.671875 1.4375-.386719.648438-.578125 1.507812-.578125 2.578125 0 1.386719.316406 2.417969.953125 3.09375.632813.667969 1.484375 1 2.546875 1 1.1875 0 2.269531-.320313 3.25-.96875.976562-.644531 1.742188-1.535156 2.296875-2.671875.550781-1.144531.828125-2.351562.828125-3.625zm0 0"/></symbol><path d="m159.5 64.777344-99.964844-47.957032v26.277344l68.769532 32.992188-68.769532 33.496094v26.277343l99.964844 47.957031v-26.277343l-67.503906-32.382813 67.503906-34.105468zm0 0" fill="#49c1bf"/><path d="m159.5 64.886719 25.964844-11.554688v26.007813l-25.964844 11.554687zm0 0" fill="#298e97"/><path d="m159.5 183.816406 25.964844-11.503906v-80.320312l-25.964844 11.503906zm0 0" fill="#298e97"/><g fill="#077a8f"><path d="m85.671875 5.460938-26.136719 11.359374.386719.1875 99.578125 47.878907 25.964844-11.554688zm0 0"/><g><use x="49.273438" xlink:href="#a" y="230.407864"/><use x="76.8342" xlink:href="#b" y="230.407864"/><use x="92.268227" xlink:href="#c" y="230.407864"/><use x="107.702253" xlink:href="#c" y="230.407864"/><use x="123.13628" xlink:href="#b" y="230.407864"/><use x="138.570307" xlink:href="#d" y="230.407864"/><use x="172.745652" xlink:href="#e" y="230.407864"/></g></g></svg>

<svg xmlns="http://www.w3.org/2000/svg" xmlns:xlink="http://www.w3.org/1999/xlink" width="250px" height="250px" viewBox="0 0 250 250" version="1.1">
<defs>
<g>
<symbol overflow="visible" id="glyph0-0">
<path style="stroke:none;" d="M 5.515625 -37.921875 L 35.796875 -37.921875 L 35.796875 0 L 5.515625 0 Z M 7.5625 -35.875 L 7.5625 -2.046875 L 33.75 -2.046875 L 33.75 -35.875 Z M 7.5625 -35.875 "/>
</symbol>
<symbol overflow="visible" id="glyph0-1">
<path style="stroke:none;" d="M 2.203125 0 L 2.203125 -5.359375 L 15.90625 -23.65625 L 3.3125 -23.65625 L 3.3125 -29.125 L 24.25 -29.125 L 24.25 -23.71875 L 10.625 -5.515625 L 25.578125 -5.515625 L 25.578125 0 Z M 2.203125 0 "/>
</symbol>
<symbol overflow="visible" id="glyph0-2">
<path style="stroke:none;" d="M 3.84375 -34.375 L 3.84375 -39.9375 L 11.40625 -39.9375 L 11.40625 -34.375 Z M 3.84375 0 L 3.84375 -29.125 L 11.40625 -29.125 L 11.40625 0 Z M 3.84375 0 "/>
</symbol>
<symbol overflow="visible" id="glyph0-3">
<path style="stroke:none;" d="M 3.84375 0 L 3.84375 -39.9375 L 11.40625 -39.9375 L 11.40625 0 Z M 3.84375 0 "/>
</symbol>
<symbol overflow="visible" id="glyph0-4">
<path style="stroke:none;" d="M 2.265625 -14.53125 C 2.265625 -19.34375 3.242188 -23.070312 5.203125 -25.71875 C 7.171875 -28.363281 9.941406 -29.6875 13.515625 -29.6875 C 17.742188 -29.6875 20.675781 -27.9375 22.3125 -24.4375 C 22.3125 -25.257812 22.359375 -26.175781 22.453125 -27.1875 C 22.554688 -28.207031 22.644531 -28.851562 22.71875 -29.125 L 29.984375 -29.125 C 29.878906 -27.1875 29.828125 -24.953125 29.828125 -22.421875 L 29.828125 11.4375 L 22.3125 11.4375 L 22.3125 -0.671875 L 22.453125 -4.84375 L 22.390625 -4.84375 C 20.722656 -1.257812 17.554688 0.53125 12.890625 0.53125 C 9.503906 0.53125 6.882812 -0.789062 5.03125 -3.4375 C 3.1875 -6.082031 2.265625 -9.78125 2.265625 -14.53125 Z M 22.375 -14.703125 C 22.375 -17.804688 21.851562 -20.210938 20.8125 -21.921875 C 19.769531 -23.640625 18.234375 -24.5 16.203125 -24.5 C 12.160156 -24.5 10.140625 -21.175781 10.140625 -14.53125 C 10.140625 -7.925781 12.144531 -4.625 16.15625 -4.625 C 18.125 -4.625 19.648438 -5.5 20.734375 -7.25 C 21.828125 -9 22.375 -11.484375 22.375 -14.703125 Z M 22.375 -14.703125 "/>
</symbol>
<symbol overflow="visible" id="glyph0-5">
<path style="stroke:none;" d="M 10.578125 0.53125 C 7.765625 0.53125 5.566406 -0.234375 3.984375 -1.765625 C 2.398438 -3.296875 1.609375 -5.453125 1.609375 -8.234375 C 1.609375 -11.253906 2.59375 -13.550781 4.5625 -15.125 C 6.53125 -16.707031 9.378906 -17.515625 13.109375 -17.546875 L 19.375 -17.65625 L 19.375 -19.140625 C 19.375 -21.035156 19.039062 -22.445312 18.375 -23.375 C 17.71875 -24.300781 16.632812 -24.765625 15.125 -24.765625 C 13.726562 -24.765625 12.703125 -24.445312 12.046875 -23.8125 C 11.390625 -23.175781 10.984375 -22.117188 10.828125 -20.640625 L 2.9375 -21.015625 C 3.414062 -23.859375 4.707031 -26.007812 6.8125 -27.46875 C 8.925781 -28.925781 11.804688 -29.65625 15.453125 -29.65625 C 19.128906 -29.65625 21.960938 -28.75 23.953125 -26.9375 C 25.941406 -25.125 26.9375 -22.550781 26.9375 -19.21875 L 26.9375 -8.609375 C 26.9375 -6.972656 27.117188 -5.847656 27.484375 -5.234375 C 27.859375 -4.617188 28.476562 -4.3125 29.34375 -4.3125 C 29.914062 -4.3125 30.472656 -4.363281 31.015625 -4.46875 L 31.015625 -0.375 C 30.554688 -0.269531 30.148438 -0.171875 29.796875 -0.078125 C 29.441406 0.00390625 29.082031 0.0703125 28.71875 0.125 C 28.363281 0.1875 27.984375 0.234375 27.578125 0.265625 C 27.171875 0.304688 26.695312 0.328125 26.15625 0.328125 C 24.257812 0.328125 22.859375 -0.132812 21.953125 -1.0625 C 21.046875 -2 20.503906 -3.375 20.328125 -5.1875 L 20.15625 -5.1875 C 18.039062 -1.375 14.847656 0.53125 10.578125 0.53125 Z M 19.375 -13.484375 L 15.5 -13.4375 C 13.738281 -13.363281 12.488281 -13.164062 11.75 -12.84375 C 11.019531 -12.53125 10.460938 -12.050781 10.078125 -11.40625 C 9.691406 -10.757812 9.5 -9.898438 9.5 -8.828125 C 9.5 -7.441406 9.816406 -6.410156 10.453125 -5.734375 C 11.085938 -5.066406 11.9375 -4.734375 13 -4.734375 C 14.1875 -4.734375 15.269531 -5.054688 16.25 -5.703125 C 17.226562 -6.347656 17.992188 -7.238281 18.546875 -8.375 C 19.097656 -9.519531 19.375 -10.726562 19.375 -12 Z M 19.375 -13.484375 "/>
</symbol>
</g>
</defs>
<g id="surface1">
<path style=" stroke:none;fill-rule:nonzero;fill:rgb(28.627452%,75.686276%,74.901962%);fill-opacity:1;" d="M 159.5 64.777344 L 59.535156 16.820312 L 59.535156 43.097656 L 128.304688 76.089844 L 59.535156 109.585938 L 59.535156 135.863281 L 159.5 183.820312 L 159.5 157.542969 L 91.996094 125.160156 L 159.5 91.054688 Z M 159.5 64.777344 "/>
<path style=" stroke:none;fill-rule:nonzero;fill:rgb(16.078432%,55.686277%,59.215689%);fill-opacity:1;" d="M 159.5 64.886719 L 185.464844 53.332031 L 185.464844 79.339844 L 159.5 90.894531 Z M 159.5 64.886719 "/>
<path style=" stroke:none;fill-rule:nonzero;fill:rgb(16.078432%,55.686277%,59.215689%);fill-opacity:1;" d="M 159.5 183.816406 L 185.464844 172.3125 L 185.464844 91.992188 L 159.5 103.496094 Z M 159.5 183.816406 "/>
<path style=" stroke:none;fill-rule:nonzero;fill:rgb(2.745098%,47.843137%,56.078434%);fill-opacity:1;" d="M 85.671875 5.460938 L 59.535156 16.820312 L 59.921875 17.007812 L 159.5 64.886719 L 185.464844 53.332031 Z M 85.671875 5.460938 "/>
<g style="fill:rgb(2.745098%,47.843137%,56.078434%);fill-opacity:1;">
  <use xlink:href="#glyph0-1" x="49.273438" y="230.407864"/>
  <use xlink:href="#glyph0-2" x="76.8342" y="230.407864"/>
  <use xlink:href="#glyph0-3" x="92.268227" y="230.407864"/>
  <use xlink:href="#glyph0-3" x="107.702253" y="230.407864"/>
  <use xlink:href="#glyph0-2" x="123.13628" y="230.407864"/>
  <use xlink:href="#glyph0-4" x="138.570307" y="230.407864"/>
  <use xlink:href="#glyph0-5" x="172.745652" y="230.407864"/>
</g>
</g>
</svg>
